X:1
T:[ID 4-30v]
T:[ID 4-30v]
T:Bezeichnung standardisiert: Menuett Menuet
T:Urheber unbekannt Datum in der hier transkribierten schriftlichen Quelle: 1767
C:Urheber unbekannt
C:Datum in der hier transkribierten schriftlichen Quelle: 1767
L:1/8
M:3/4
K:A
V:1 treble 
V:1
 ae'c'abg | ae'c'abg | a2 gfed | c2 Bc A2 | fa/g/ afea | da/g/ acBa | Aa/g/ afea | da/g/ acBa | %8
 A2 d'2 c'2 | bEGEAE | BEcEdE | e2 d'2 c'2 | b6 :: ebgef^d | ebgef^d | e2 ^dcBA | G2 AB E2 | %17
 g4 a2 | ^ececfc | g4 a2 | ^ececfc | gcgc a"^[Notat bricht ab]"c | x6 | %23

